Newaita-dark/.DP/64/weather-fog.svg

<?xml version="1.0" encoding="UTF-8"?>
<svg xmlns="http://www.w3.org/2000/svg" xmlns:xlink="http://www.w3.org/1999/xlink" width="64pt" height="64pt" viewBox="0 0 64 64" version="1.1">
<defs>
<linearGradient id="linear0" gradientUnits="userSpaceOnUse" x1="960" y1="1695.118164" x2="960" y2="815.118103" gradientTransform="matrix(0.0330761,0,0,0.0330761,0,-20.866838)">
<stop offset="0" style="stop-color:rgb(47.058824%,56.470588%,61.176471%);stop-opacity:1;"/>
<stop offset="1" style="stop-color:rgb(56.470588%,64.313725%,68.235294%);stop-opacity:1;"/>
</linearGradient>
<linearGradient id="linear1" gradientUnits="userSpaceOnUse" x1="254" y1="222.916672" x2="254" y2="95.916664" >
<stop offset="0" style="stop-color:rgb(47.058824%,56.470588%,61.176471%);stop-opacity:1;"/>
<stop offset="1" style="stop-color:rgb(56.470588%,64.313725%,68.235294%);stop-opacity:1;"/>
</linearGradient>
<linearGradient id="linear2" gradientUnits="userSpaceOnUse" x1="254" y1="222.916672" x2="254" y2="95.916664" >
<stop offset="0" style="stop-color:rgb(47.058824%,56.470588%,61.176471%);stop-opacity:1;"/>
<stop offset="1" style="stop-color:rgb(56.470588%,64.313725%,68.235294%);stop-opacity:1;"/>
</linearGradient>
<linearGradient id="linear3" gradientUnits="userSpaceOnUse" x1="254" y1="233.5" x2="254" y2="254.666672" gradientTransform="matrix(0.125012,0,0,0.125012,1.984564,25.554526)">
<stop offset="0" style="stop-color:rgb(0%,0%,0%);stop-opacity:0.27451;"/>
<stop offset="1" style="stop-color:rgb(0%,0%,0%);stop-opacity:0;"/>
</linearGradient>
<radialGradient id="radial0" gradientUnits="userSpaceOnUse" cx="450.908936" cy="189.579361" fx="450.908936" fy="189.579361" r="21.166656" gradientTransform="matrix(0.000000348341,-0.156265,-0.281277,-0.000000203077,89.707819,125.867621)">
<stop offset="0" style="stop-color:rgb(0%,0%,0%);stop-opacity:0.313725;"/>
<stop offset="0.222222" style="stop-color:rgb(0%,0%,0%);stop-opacity:0.27451;"/>
<stop offset="1" style="stop-color:rgb(0%,0%,0%);stop-opacity:0;"/>
</radialGradient>
<radialGradient id="radial1" gradientUnits="userSpaceOnUse" cx="450.908936" cy="189.579361" fx="450.908936" fy="189.579361" r="21.166656" gradientTransform="matrix(-0.000000348341,0.156265,0.281277,0.000000203077,-26.201766,-16.378002)">
<stop offset="0" style="stop-color:rgb(0%,0%,0%);stop-opacity:0.313725;"/>
<stop offset="0.222222" style="stop-color:rgb(0%,0%,0%);stop-opacity:0.27451;"/>
<stop offset="1" style="stop-color:rgb(0%,0%,0%);stop-opacity:0;"/>
</radialGradient>
<radialGradient id="radial2" gradientUnits="userSpaceOnUse" cx="450.908936" cy="189.579361" fx="450.908936" fy="189.579361" r="21.166656" gradientTransform="matrix(-0.000000348341,-0.156265,0.281277,-0.000000203077,-26.201766,125.867621)">
<stop offset="0" style="stop-color:rgb(0%,0%,0%);stop-opacity:0.313725;"/>
<stop offset="0.222222" style="stop-color:rgb(0%,0%,0%);stop-opacity:0.27451;"/>
<stop offset="1" style="stop-color:rgb(0%,0%,0%);stop-opacity:0;"/>
</radialGradient>
<radialGradient id="radial3" gradientUnits="userSpaceOnUse" cx="450.908936" cy="189.579361" fx="450.908936" fy="189.579361" r="21.166656" gradientTransform="matrix(0.000000348341,0.156265,-0.281277,0.000000203077,89.707815,-16.378003)">
<stop offset="0" style="stop-color:rgb(0%,0%,0%);stop-opacity:0.313725;"/>
<stop offset="0.222222" style="stop-color:rgb(0%,0%,0%);stop-opacity:0.27451;"/>
<stop offset="1" style="stop-color:rgb(0%,0%,0%);stop-opacity:0;"/>
</radialGradient>
<linearGradient id="linear4" gradientUnits="userSpaceOnUse" x1="254" y1="222.916672" x2="254" y2="95.916664" >
<stop offset="0" style="stop-color:rgb(47.058824%,56.470588%,61.176471%);stop-opacity:1;"/>
<stop offset="1" style="stop-color:rgb(56.470588%,64.313725%,68.235294%);stop-opacity:1;"/>
</linearGradient>
</defs>
<g id="surface1">
<path style=" stroke:none;fill-rule:nonzero;fill:url(#linear0);" d="M 43.660156 6.09375 C 37.84375 6.09375 32.84375 9.472656 30.511719 14.382812 C 29.640625 14.15625 28.726562 14.03125 27.785156 14.03125 C 23.257812 14.03125 19.410156 16.847656 17.894531 20.828125 C 16.585938 19.882812 14.976562 19.324219 13.230469 19.324219 C 8.832031 19.324219 5.292969 22.863281 5.292969 27.261719 C 5.292969 31.660156 8.832031 35.199219 13.230469 35.199219 C 13.558594 35.199219 13.878906 35.179688 14.195312 35.144531 C 14.308594 35.179688 14.429688 35.199219 14.554688 35.199219 L 43.660156 35.199219 C 43.660156 35.199219 43.664062 35.199219 43.664062 35.199219 C 51.722656 35.199219 58.214844 28.710938 58.214844 20.648438 C 58.214844 12.585938 51.722656 6.09375 43.660156 6.09375 Z M 43.660156 6.09375 "/>
<path style=" stroke:none;fill-rule:nonzero;fill:rgb(100%,100%,100%);fill-opacity:0.392157;" d="M 43.660156 6.09375 C 37.84375 6.09375 32.84375 9.472656 30.511719 14.382812 C 29.640625 14.15625 28.726562 14.03125 27.785156 14.03125 C 23.257812 14.03125 19.410156 16.847656 17.894531 20.828125 C 16.585938 19.882812 14.976562 19.324219 13.230469 19.324219 C 8.832031 19.324219 5.292969 22.863281 5.292969 27.261719 C 5.292969 27.375 5.296875 27.484375 5.300781 27.59375 C 5.472656 23.351562 8.945312 19.984375 13.230469 19.984375 C 14.976562 19.984375 16.585938 20.542969 17.894531 21.492188 C 19.410156 17.507812 23.257812 14.695312 27.785156 14.695312 C 28.726562 14.695312 29.640625 14.816406 30.511719 15.046875 C 32.84375 10.136719 37.84375 6.753906 43.660156 6.753906 C 51.613281 6.753906 58.035156 13.070312 58.210938 20.976562 C 58.210938 20.867188 58.214844 20.757812 58.214844 20.648438 C 58.214844 12.585938 51.722656 6.09375 43.660156 6.09375 Z M 43.660156 6.09375 "/>
<path style=" stroke:none;fill-rule:nonzero;fill:rgb(0%,0%,0%);fill-opacity:0.235294;" d="M 58.210938 20.34375 C 58.050781 28.265625 51.625 34.597656 43.664062 34.597656 C 43.664062 34.597656 43.660156 34.597656 43.660156 34.597656 L 14.554688 34.597656 C 14.429688 34.597656 14.308594 34.578125 14.195312 34.539062 C 13.878906 34.578125 13.558594 34.597656 13.230469 34.597656 C 8.933594 34.597656 5.457031 31.21875 5.296875 26.960938 C 5.292969 27.0625 5.292969 27.160156 5.292969 27.261719 C 5.292969 31.660156 8.832031 35.199219 13.230469 35.199219 C 13.558594 35.199219 13.878906 35.179688 14.195312 35.144531 C 14.308594 35.179688 14.429688 35.199219 14.554688 35.199219 L 43.660156 35.199219 C 43.660156 35.199219 43.664062 35.199219 43.664062 35.199219 C 51.722656 35.199219 58.214844 28.710938 58.214844 20.648438 C 58.214844 20.546875 58.210938 20.445312 58.210938 20.34375 Z M 58.210938 20.34375 "/>
<path style="fill:none;stroke-width:3;stroke-linecap:round;stroke-linejoin:miter;stroke:rgb(12.941177%,12.941177%,12.941177%);stroke-opacity:1;stroke-miterlimit:4;" d="M 349.247898 -166.254655 C 302.721092 -166.254655 262.724911 -139.225986 244.070442 -99.948487 C 237.102358 -101.760814 229.790556 -102.760718 222.260025 -102.760718 C 186.044734 -102.760718 155.266423 -80.23162 143.142581 -48.39091 C 132.67483 -55.952688 119.80106 -60.421012 105.833643 -60.421012 C 70.649503 -60.421012 42.339707 -32.111215 42.339707 3.072925 C 42.339707 38.257065 70.649503 66.566862 105.833643 66.566862 C 108.458393 66.566862 111.020648 66.410627 113.551656 66.129403 C 114.45782 66.410627 115.426477 66.566862 116.426382 66.566862 L 349.247898 66.566862 C 349.247898 66.566862 349.279146 66.566862 349.279146 66.566862 C 413.74174 66.566862 465.67428 14.665568 465.67428 -49.828273 C 465.67428 -114.322114 413.74174 -166.254655 349.247898 -166.254655 Z M 349.247898 -166.254655 " transform="matrix(0.125012,0,0,0.125012,0,26.877566)"/>
<path style="fill-rule:nonzero;fill:url(#linear1);stroke-width:3;stroke-linecap:square;stroke-linejoin:round;stroke:rgb(12.941177%,12.941177%,12.941177%);stroke-opacity:1;stroke-miterlimit:4;" d="M 68.805929 95.90781 L 439.208058 95.90781 C 445.05125 95.90781 449.800796 100.657356 449.800796 106.500548 C 449.800796 112.34374 445.05125 117.093287 439.208058 117.093287 L 68.805929 117.093287 C 62.93149 117.093287 58.213191 112.34374 58.213191 106.500548 C 58.213191 100.657356 62.93149 95.90781 68.805929 95.90781 Z M 68.805929 95.90781 " transform="matrix(0.125012,0,0,0.125012,0,26.877566)"/>
<path style="fill-rule:nonzero;fill:url(#linear2);stroke-width:3;stroke-linecap:square;stroke-linejoin:round;stroke:rgb(12.941177%,12.941177%,12.941177%);stroke-opacity:1;stroke-miterlimit:4;" d="M 132.299866 148.840255 L 375.714121 148.840255 C 381.557313 148.840255 386.30686 153.308578 386.30686 158.808053 L 386.30686 160.026687 C 386.30686 165.526162 381.557313 169.994485 375.714121 169.994485 L 132.299866 169.994485 C 126.456674 169.994485 121.707128 165.526162 121.707128 160.026687 L 121.707128 158.808053 C 121.707128 153.308578 126.456674 148.840255 132.299866 148.840255 Z M 132.299866 148.840255 " transform="matrix(0.125012,0,0,0.125012,0,26.877566)"/>
<path style=" stroke:none;fill-rule:nonzero;fill:url(#linear3);" d="M 26.460938 54.746094 L 37.046875 54.746094 L 37.046875 57.390625 L 26.460938 57.390625 Z M 26.460938 54.746094 "/>
<path style=" stroke:none;fill-rule:nonzero;fill:url(#radial0);" d="M 37.046875 54.746094 L 42.335938 54.746094 L 42.335938 52.097656 L 37.046875 52.097656 Z M 37.046875 54.746094 "/>
<path style=" stroke:none;fill-rule:nonzero;fill:url(#radial1);" d="M 26.460938 54.746094 L 21.167969 54.746094 L 21.167969 57.390625 L 26.460938 57.390625 Z M 26.460938 54.746094 "/>
<path style=" stroke:none;fill-rule:nonzero;fill:url(#radial2);" d="M 26.460938 54.746094 L 21.167969 54.746094 L 21.167969 52.097656 L 26.460938 52.097656 Z M 26.460938 54.746094 "/>
<path style=" stroke:none;fill-rule:nonzero;fill:url(#radial3);" d="M 37.046875 54.746094 L 42.335938 54.746094 L 42.335938 57.390625 L 37.046875 57.390625 Z M 37.046875 54.746094 "/>
<path style="fill-rule:nonzero;fill:url(#linear4);stroke-width:3;stroke-linecap:square;stroke-linejoin:round;stroke:rgb(12.941177%,12.941177%,12.941177%);stroke-opacity:1;stroke-miterlimit:4;" d="M 190.513057 201.741453 L 317.50093 201.741453 C 323.344122 201.741453 328.093669 205.9598 328.093669 211.115558 L 328.093669 213.552825 C 328.093669 218.708583 323.344122 222.92693 317.50093 222.92693 L 190.513057 222.92693 C 184.669865 222.92693 179.920318 218.708583 179.920318 213.552825 L 179.920318 211.115558 C 179.920318 205.9598 184.669865 201.741453 190.513057 201.741453 Z M 190.513057 201.741453 " transform="matrix(0.125012,0,0,0.125012,0,26.877566)"/>
</g>
</svg>

<svg xmlns="http://www.w3.org/2000/svg" width="64pt" height="64pt" viewBox="0 0 64 64"><defs><linearGradient id="a" gradientUnits="userSpaceOnUse" x1="960" y1="1695.118" x2="960" y2="815.118" gradientTransform="matrix(.03308 0 0 .03308 0 -20.867)"><stop offset="0" stop-color="#78909c"/><stop offset="1" stop-color="#90a4ae"/></linearGradient><linearGradient id="b" gradientUnits="userSpaceOnUse" x1="254" y1="222.917" x2="254" y2="95.917"><stop offset="0" stop-color="#78909c"/><stop offset="1" stop-color="#90a4ae"/></linearGradient><linearGradient id="c" gradientUnits="userSpaceOnUse" x1="254" y1="222.917" x2="254" y2="95.917"><stop offset="0" stop-color="#78909c"/><stop offset="1" stop-color="#90a4ae"/></linearGradient><linearGradient id="d" gradientUnits="userSpaceOnUse" x1="254" y1="233.5" x2="254" y2="254.667" gradientTransform="translate(1.985 25.555) scale(.12501)"><stop offset="0" stop-opacity=".275"/><stop offset="1" stop-opacity="0"/></linearGradient><radialGradient id="e" gradientUnits="userSpaceOnUse" cx="450.909" cy="189.579" fx="450.909" fy="189.579" r="21.167" gradientTransform="matrix(0 -.15626 -.28128 0 89.708 125.868)"><stop offset="0" stop-opacity=".314"/><stop offset=".222" stop-opacity=".275"/><stop offset="1" stop-opacity="0"/></radialGradient><radialGradient id="f" gradientUnits="userSpaceOnUse" cx="450.909" cy="189.579" fx="450.909" fy="189.579" r="21.167" gradientTransform="matrix(0 .15626 .28128 0 -26.202 -16.378)"><stop offset="0" stop-opacity=".314"/><stop offset=".222" stop-opacity=".275"/><stop offset="1" stop-opacity="0"/></radialGradient><radialGradient id="g" gradientUnits="userSpaceOnUse" cx="450.909" cy="189.579" fx="450.909" fy="189.579" r="21.167" gradientTransform="matrix(0 -.15626 .28128 0 -26.202 125.868)"><stop offset="0" stop-opacity=".314"/><stop offset=".222" stop-opacity=".275"/><stop offset="1" stop-opacity="0"/></radialGradient><radialGradient id="h" gradientUnits="userSpaceOnUse" cx="450.909" cy="189.579" fx="450.909" fy="189.579" r="21.167" gradientTransform="matrix(0 .15626 -.28128 0 89.708 -16.378)"><stop offset="0" stop-opacity=".314"/><stop offset=".222" stop-opacity=".275"/><stop offset="1" stop-opacity="0"/></radialGradient><linearGradient id="i" gradientUnits="userSpaceOnUse" x1="254" y1="222.917" x2="254" y2="95.917"><stop offset="0" stop-color="#78909c"/><stop offset="1" stop-color="#90a4ae"/></linearGradient></defs><path d="M43.66 6.094a14.52 14.52 0 0 0-13.148 8.289 10.823 10.823 0 0 0-2.727-.352 10.561 10.561 0 0 0-9.89 6.797 7.933 7.933 0 0 0-4.665-1.504 7.919 7.919 0 0 0-7.937 7.938 7.919 7.919 0 0 0 7.937 7.937c.329 0 .649-.02.965-.054.114.035.235.054.36.054h29.109a14.52 14.52 0 0 0 14.55-14.55A14.524 14.524 0 0 0 43.66 6.093zm0 0" fill="url(#a)"/><path d="M43.66 6.094a14.52 14.52 0 0 0-13.148 8.289 10.823 10.823 0 0 0-2.727-.352 10.561 10.561 0 0 0-9.89 6.797 7.933 7.933 0 0 0-4.665-1.504 7.919 7.919 0 0 0-7.93 8.27 7.922 7.922 0 0 1 7.93-7.61 7.91 7.91 0 0 1 4.665 1.508 10.556 10.556 0 0 1 9.89-6.797c.942 0 1.856.121 2.727.352A14.523 14.523 0 0 1 43.66 6.754a14.523 14.523 0 0 1 14.55 14.223c0-.11.005-.22.005-.329A14.524 14.524 0 0 0 43.66 6.094zm0 0" fill="#fff" fill-opacity=".392"/><path d="M58.21 20.344a14.52 14.52 0 0 1-14.546 14.254H14.555a1.1 1.1 0 0 1-.36-.059 7.922 7.922 0 0 1-8.898-7.578c-.004.102-.004.2-.004.3A7.919 7.919 0 0 0 13.23 35.2c.329 0 .649-.02.965-.054.114.035.235.054.36.054h29.109a14.52 14.52 0 0 0 14.55-14.55c0-.102-.003-.204-.003-.305zm0 0" fill-opacity=".235"/><path d="M43.66 6.094a14.52 14.52 0 0 0-13.148 8.289 10.823 10.823 0 0 0-2.727-.352 10.561 10.561 0 0 0-9.89 6.797 7.933 7.933 0 0 0-4.665-1.504 7.919 7.919 0 0 0-7.937 7.938 7.919 7.919 0 0 0 7.937 7.937c.329 0 .649-.02.965-.054.114.035.235.054.36.054h29.109a14.52 14.52 0 0 0 14.55-14.55A14.524 14.524 0 0 0 43.66 6.093zm0 0" fill="none" stroke-width=".37503000000000003" stroke-linecap="round" stroke="#212121"/><path d="M68.806 95.908h370.402c5.843 0 10.593 4.75 10.593 10.593s-4.75 10.592-10.593 10.592H68.806a10.582 10.582 0 0 1-10.593-10.592 10.582 10.582 0 0 1 10.593-10.593zm0 0" transform="translate(0 26.878) scale(.12501)" fill="url(#b)" stroke-width="3" stroke-linecap="square" stroke-linejoin="round" stroke="#212121"/><path d="M132.3 148.84h243.414c5.843 0 10.593 4.469 10.593 9.968v1.219c0 5.5-4.75 9.967-10.593 9.967H132.3c-5.843 0-10.593-4.468-10.593-9.967v-1.219c0-5.5 4.75-9.968 10.593-9.968zm0 0" transform="translate(0 26.878) scale(.12501)" fill="url(#c)" stroke-width="3" stroke-linecap="square" stroke-linejoin="round" stroke="#212121"/><path d="M26.46 54.746h10.587v2.645H26.46zm0 0" fill="url(#d)"/><path d="M37.047 54.746h5.289v-2.648h-5.29zm0 0" fill="url(#e)"/><path d="M26.46 54.746h-5.292v2.645h5.293zm0 0" fill="url(#f)"/><path d="M26.46 54.746h-5.292v-2.648h5.293zm0 0" fill="url(#g)"/><path d="M37.047 54.746h5.289v2.645h-5.29zm0 0" fill="url(#h)"/><path d="M190.513 201.741h126.988c5.843 0 10.593 4.219 10.593 9.375v2.437c0 5.156-4.75 9.374-10.593 9.374H190.513c-5.843 0-10.593-4.218-10.593-9.374v-2.437c0-5.156 4.75-9.375 10.593-9.375zm0 0" transform="translate(0 26.878) scale(.12501)" fill="url(#i)" stroke-width="3" stroke-linecap="square" stroke-linejoin="round" stroke="#212121"/></svg>
